X:228
T:Wiltshire 6 Hand Reel
M:2/2
L:1/8
Q:220
K:G
G3 A || B2 D2 G2 A2 | B2 D2 G2 A2 | B3 B c2 B2 | B2 A2 A4 |
B2 D2 F2 G2| A2 D2 F2 G2 | A3 A B2 A2 |1 A2 G2 G3 A :|2 A2 G2 G4 ||
d2 GG G2 G2 | F2 E2 E4 | c2 FF F2 F2 | E2 D2 D4 |
d2 GG G2 G2 |F2 E2 E4| E2 G2 F2 A2 |1 G4 G4 :|2 G4 G2 ||
